packages/elements/bolt-icon/src/svgs/retail.svg

<svg enable-background="new 0 0 32 32" viewBox="0 0 32 32" xmlns="http://www.w3.org/2000/svg"><path clip-rule="evenodd" d="m29 29c0 .5-.4 1-.9 1h-.1-11v-18.6l6 2.6c1.1 0 2-.9 2-2v-5h3c.5 0 1 .4 1 .9v.1zm-6-24.6v6.6c0 .5-.4 1-.9 1h-.1l-4.4-2.2zm-13.4-2.1-.1-.1c.1-.1.3-.2.5-.2h12c.2 0 .4.1.5.2-.1 0-.1.1-.2.1l-6.3 6.3zm5.4 27.7h-11c-.5 0-1-.4-1-.9v-.1-21c0-.5.4-1 .9-1h.1 3v5c0 1.1.9 2 2 2l6-2.6zm-6-25.6 5.4 5.4-4.4 2.2c-.5 0-1-.4-1-.9v-.1zm20 .6h-4v-3c0-1.1-.9-2-2-2h-14c-1.1 0-2 .9-2 2v3h-4c-1.1 0-2 .9-2 2v23c0 1.1.9 2 2 2h26c1.1 0 2-.9 2-2v-23c0-1.1-.9-2-2-2zm-10 15h8v-2h-8z" fill="#151619" fill-rule="evenodd"/></svg>

<?xml version="1.0" encoding="utf-8"?>
<!-- Generator: Adobe Illustrator 25.2.0, SVG Export Plug-In . SVG Version: 6.00 Build 0)  -->
<svg version="1.1" id="Layer_1" xmlns="http://www.w3.org/2000/svg" xmlns:xlink="http://www.w3.org/1999/xlink" x="0px" y="0px"
	 viewBox="0 0 32 32" style="enable-background:new 0 0 32 32;" xml:space="preserve">
<style type="text/css">
	.st0{fill-rule:evenodd;clip-rule:evenodd;fill:#151619;}
</style>
<path class="st0" d="M29,29c0,0.5-0.4,1-0.9,1c0,0-0.1,0-0.1,0H17V11.4l6,2.6c1.1,0,2-0.9,2-2V7h3c0.5,0,1,0.4,1,0.9
	c0,0,0,0.1,0,0.1V29z M23,4.4V11c0,0.5-0.4,1-0.9,1c0,0-0.1,0-0.1,0l-4.4-2.2L23,4.4z M9.6,2.3L9.5,2.2C9.6,2.1,9.8,2,10,2h12
	c0.2,0,0.4,0.1,0.5,0.2c-0.1,0-0.1,0.1-0.2,0.1L16,8.6L9.6,2.3z M15,30H4c-0.5,0-1-0.4-1-0.9c0,0,0-0.1,0-0.1V8c0-0.5,0.4-1,0.9-1
	C3.9,7,4,7,4,7h3v5c0,1.1,0.9,2,2,2l6-2.6V30z M9,4.4l5.4,5.4L10,12c-0.5,0-1-0.4-1-0.9c0,0,0-0.1,0-0.1V4.4z M29,5h-4V2
	c0-1.1-0.9-2-2-2H9C7.9,0,7,0.9,7,2v3H3C1.9,5,1,5.9,1,7v23c0,1.1,0.9,2,2,2h26c1.1,0,2-0.9,2-2V7C31,5.9,30.1,5,29,5z M19,20h8v-2
	h-8V20z"/>
</svg>
